src/assets/icons/java.svg

<svg width="128" height="128" viewBox="0 0 128 128" fill="none" xmlns="http://www.w3.org/2000/svg">
<path d="M52.581 67.817C52.581 67.817 49.297 69.728 54.922 70.374C61.736 71.152 65.219 71.04 72.727 69.621C72.727 69.621 74.706 70.858 77.462 71.93C60.626 79.143 39.358 71.512 52.581 67.817ZM50.522 58.402C50.522 58.402 46.838 61.131 52.467 61.713C59.747 62.464 65.494 62.526 75.446 60.61C75.446 60.61 76.819 62.006 78.982 62.767C58.63 68.721 35.961 63.236 50.522 58.402Z" fill="white"/>
<path d="M67.865 42.431C72.016 47.209 66.777 51.505 66.777 51.505C66.777 51.505 77.31 46.068 72.473 39.257C67.954 32.908 64.491 29.755 83.244 18.879C83.244 18.879 53.806 26.229 67.865 42.431Z" fill="white"/>
<path d="M90.1321 74.781C90.1321 74.781 92.5641 76.786 87.4541 78.336C77.7381 81.279 47.0101 82.167 38.4751 78.453C35.4091 77.118 41.1621 75.266 42.9711 74.877C44.8581 74.468 45.9361 74.543 45.9361 74.543C42.5241 72.14 23.8811 79.262 36.4671 81.305C70.7911 86.868 99.0341 78.799 90.1321 74.781ZM54.1621 48.647C54.1621 48.647 38.5331 52.36 48.6281 53.71C52.8921 54.28 61.3861 54.149 69.3041 53.485C75.7731 52.942 82.2651 51.781 82.2651 51.781C82.2651 51.781 79.9861 52.759 78.3351 53.885C62.4611 58.06 31.8021 56.115 40.6291 51.847C48.0921 48.236 54.1621 48.647 54.1621 48.647ZM82.2001 64.317C98.3351 55.935 90.8741 47.879 85.6671 48.964C84.3941 49.23 83.8221 49.46 83.8221 49.46C83.8221 49.46 84.2971 48.716 85.2001 48.397C95.5021 44.777 103.423 59.078 81.8781 64.742C81.8781 64.742 82.1251 64.518 82.2001 64.317Z" fill="white"/>
<path d="M72.4741 1.31299C72.4741 1.31299 81.4091 10.252 63.9981 23.995C50.0361 35.022 60.8141 41.308 63.9921 48.493C55.8421 41.139 49.8641 34.665 53.8741 28.641C59.7631 19.799 76.0781 15.51 72.4741 1.31299Z" fill="white"/>
<path d="M55.7491 87.039C71.2331 88.029 95.0181 86.488 95.5811 79.161C95.5811 79.161 94.4991 81.938 82.7821 84.142C69.5641 86.63 53.2591 86.341 43.5911 84.745C43.5911 84.745 45.5711 86.385 55.7491 87.039Z" fill="white"/>
<path d="M94.8659 100.181H94.3939V99.917H95.6639V100.181H95.1939V101.498H94.8649L94.8659 100.181ZM97.4009 100.247H97.3949L96.9269 101.498H96.7109L96.2459 100.247H96.2409V101.498H95.9289V99.917H96.3859L96.8169 101.036L97.2489 99.917H97.7029V101.498H97.4009V100.247ZM53.2109 115.037C51.7509 116.303 50.2069 117.015 48.8199 117.015C46.8459 117.015 45.7749 115.829 45.7749 113.93C45.7749 111.875 46.9209 110.37 51.5129 110.37H53.2099L53.2109 115.037ZM57.2419 119.585V105.508C57.2419 101.909 55.1889 99.535 50.2449 99.535C47.3589 99.535 44.8289 100.249 42.7719 101.157L43.3639 103.65C44.9839 103.055 47.0789 102.503 49.1349 102.503C51.9849 102.503 53.2099 103.65 53.2099 106.024V107.803H51.7859C44.8649 107.803 41.7419 110.488 41.7419 114.526C41.7419 118.005 43.7999 119.982 47.6749 119.982C50.1649 119.982 52.0259 118.954 53.7629 117.449L54.0789 119.586L57.2419 119.585ZM70.6939 119.585H65.6669L59.6159 99.896H64.0069L67.7629 111.995L68.5979 115.63C70.4939 110.372 71.8379 105.034 72.5099 99.897H76.7809C75.6379 106.378 73.5779 113.495 70.6939 119.585ZM89.9819 115.037C88.5169 116.303 86.9719 117.015 85.5899 117.015C83.6139 117.015 82.5439 115.829 82.5439 113.93C82.5439 111.875 83.6929 110.37 88.2799 110.37H89.9809L89.9819 115.037ZM94.0149 119.585V105.508C94.0149 101.909 91.9559 99.535 87.0159 99.535C84.1269 99.535 81.5979 100.249 79.5409 101.157L80.1339 103.65C81.7539 103.055 83.8519 102.503 85.9079 102.503C88.7539 102.503 89.9819 103.65 89.9819 106.024V107.803H88.5579C81.6349 107.803 78.5129 110.488 78.5129 114.526C78.5129 118.005 80.5689 119.982 84.4429 119.982C86.9339 119.982 88.7919 118.954 90.5339 117.449L90.8519 119.586L94.0149 119.585ZM37.3219 122.931C36.1749 124.61 34.3169 125.939 32.2849 126.688L30.2959 124.343C31.8429 123.549 33.1679 122.268 33.7849 121.074C34.3169 120.011 34.5379 118.644 34.5379 115.373V92.891H38.8219V115.064C38.8219 119.439 38.4739 121.208 37.3219 122.931Z" fill="white"/>
</svg>

<svg xmlns="http://www.w3.org/2000/svg" viewBox="0 0 128 128"><path fill="#0074BD" d="M52.581 67.817s-3.284 1.911 2.341 2.557c6.814.778 10.297.666 17.805-.753 0 0 1.979 1.237 4.735 2.309-16.836 7.213-38.104-.418-24.881-4.113zm-2.059-9.415s-3.684 2.729 1.945 3.311c7.28.751 13.027.813 22.979-1.103 0 0 1.373 1.396 3.536 2.157-20.352 5.954-43.021.469-28.46-4.365z"/><path fill="#EA2D2E" d="M67.865 42.431c4.151 4.778-1.088 9.074-1.088 9.074s10.533-5.437 5.696-12.248c-4.519-6.349-7.982-9.502 10.771-20.378.001 0-29.438 7.35-15.379 23.552z"/><path fill="#0074BD" d="M90.132 74.781s2.432 2.005-2.678 3.555c-9.716 2.943-40.444 3.831-48.979.117-3.066-1.335 2.687-3.187 4.496-3.576 1.887-.409 2.965-.334 2.965-.334-3.412-2.403-22.055 4.719-9.469 6.762 34.324 5.563 62.567-2.506 53.665-6.524zm-35.97-26.134s-15.629 3.713-5.534 5.063c4.264.57 12.758.439 20.676-.225 6.469-.543 12.961-1.704 12.961-1.704s-2.279.978-3.93 2.104c-15.874 4.175-46.533 2.23-37.706-2.038 7.463-3.611 13.533-3.2 13.533-3.2zM82.2 64.317c16.135-8.382 8.674-16.438 3.467-15.353-1.273.266-1.845.496-1.845.496s.475-.744 1.378-1.063c10.302-3.62 18.223 10.681-3.322 16.345 0 0 .247-.224.322-.425z"/><path fill="#EA2D2E" d="M72.474 1.313s8.935 8.939-8.476 22.682c-13.962 11.027-3.184 17.313-.006 24.498-8.15-7.354-14.128-13.828-10.118-19.852 5.889-8.842 22.204-13.131 18.6-27.328z"/><path fill="#0074BD" d="M55.749 87.039c15.484.99 39.269-.551 39.832-7.878 0 0-1.082 2.777-12.799 4.981-13.218 2.488-29.523 2.199-39.191.603 0 0 1.98 1.64 12.158 2.294z"/><path fill="#EA2D2E" d="M94.866 100.181h-.472v-.264h1.27v.264h-.47v1.317h-.329l.001-1.317zm2.535.066h-.006l-.468 1.251h-.216l-.465-1.251h-.005v1.251h-.312v-1.581h.457l.431 1.119.432-1.119h.454v1.581h-.302v-1.251zm-44.19 14.79c-1.46 1.266-3.004 1.978-4.391 1.978-1.974 0-3.045-1.186-3.045-3.085 0-2.055 1.146-3.56 5.738-3.56h1.697v4.667h.001zm4.031 4.548v-14.077c0-3.599-2.053-5.973-6.997-5.973-2.886 0-5.416.714-7.473 1.622l.592 2.493c1.62-.595 3.715-1.147 5.771-1.147 2.85 0 4.075 1.147 4.075 3.521v1.779h-1.424c-6.921 0-10.044 2.685-10.044 6.723 0 3.479 2.058 5.456 5.933 5.456 2.49 0 4.351-1.028 6.088-2.533l.316 2.137h3.163v-.001zm13.452 0h-5.027l-6.051-19.689h4.391l3.756 12.099.835 3.635c1.896-5.258 3.24-10.596 3.912-15.733h4.271c-1.143 6.481-3.203 13.598-6.087 19.688zm19.288-4.548c-1.465 1.266-3.01 1.978-4.392 1.978-1.976 0-3.046-1.186-3.046-3.085 0-2.055 1.149-3.56 5.736-3.56h1.701v4.667h.001zm4.033 4.548v-14.077c0-3.599-2.059-5.973-6.999-5.973-2.889 0-5.418.714-7.475 1.622l.593 2.493c1.62-.595 3.718-1.147 5.774-1.147 2.846 0 4.074 1.147 4.074 3.521v1.779h-1.424c-6.923 0-10.045 2.685-10.045 6.723 0 3.479 2.056 5.456 5.93 5.456 2.491 0 4.349-1.028 6.091-2.533l.318 2.137h3.163v-.001zm-56.693 3.346c-1.147 1.679-3.005 3.008-5.037 3.757l-1.989-2.345c1.547-.794 2.872-2.075 3.489-3.269.532-1.063.753-2.43.753-5.701V92.891h4.284v22.173c0 4.375-.348 6.144-1.5 7.867z"/></svg>
